assets/img/braze_icons/file-question-02.svg

<svg fill="none" height="24" viewBox="0 0 24 24" width="24" xmlns="http://www.w3.org/2000/svg"><g fill="#801ed7"><path clip-rule="evenodd" d="m8.7587 1h6.4826c.805-.000012 1.4693-.000021 2.0105.0442.5621.04592 1.0788.14448 1.5642.39178.7526.38349 1.3645.99541 1.748 1.74806.2473.48534.3459 1.00204.3918 1.56414.0442.54119.0442 1.20554.0442 2.0105v3.00716c0 .43426 0 .65146-.0706.76976-.0707.1185-.1429.1763-.2741.2192-.1309.0428-.3803-.0135-.8791-.1261-.0887-.02-.1781-.0377-.268-.0531-1.2216-.2096-2.478.02-3.5466.648-1.0685.628-1.8803 1.6139-2.2916 2.7831-.5499 1.563.2715 3.2757 1.8344 3.8255.0394.0139.0789.0269.1184.039-.0153.3555.0328.7198.152 1.0775.0684.205.1567.3977.2621.5766-.2463.4355-.3869.9387-.3869 1.4747 0 .3487.0595.6835.1689.9948.0834.2374.1251.3561.1298.3731.1027.3747-.0595.6035-.4471.6309-.0175.0012-.0985.0012-.2603.0012h-6.48262c-.80496 0-1.46931 0-2.0105-.0442-.5621-.0459-1.0788-.1445-1.56414-.3918-.75265-.3835-1.36457-.9954-1.74806-1.748-.2473-.4854-.34586-1.0021-.39178-1.5642-.04422-.5412-.04421-1.2055-.0442-2.0105v-10.48261c-.00001-.80496-.00002-1.46933.0442-2.01051.04592-.5621.14448-1.0788.39178-1.56414.38349-.75265.99541-1.36457 1.74806-1.74806.48534-.2473 1.00204-.34586 1.56414-.39178.54118-.044221 1.20557-.044212 2.01052-.0442zm-1.7587 4c-.55228 0-1 .44772-1 1 0 .55229.44772 1 1 1h9c.5523 0 1-.44771 1-1 0-.55228-.4477-1-1-1zm-1 5c0-.55229.44772-1 1-1h6c.5523 0 1 .44771 1 1 0 .5523-.4477 1-1 1h-6c-.55228 0-1-.4477-1-1zm0 4c0-.5523.44772-1 1-1h2c.55229 0 1 .4477 1 1s-.44771 1-1 1h-2c-.55228 0-1-.4477-1-1z" fill-rule="evenodd"/><path d="m17.9884 14.6721c.2542-.1494.553-.204.8436-.1541.2905.0498.5541.2009.7439.4264.1899.2255.2938.511.2934.8058v.0015c0 .2186-.1772.5197-.6789.8542-.2204.1469-.4479.2614-.6243.3398-.0868.0385-.1577.0668-.2045.0847-.0234.0089-.0405.0151-.0504.0186l-.0081.0029c-.5229.1752-.8053.7409-.6308 1.2643.1746.524.7409.8071 1.2649.6325l.0012-.0004.0428-.0149c.0231-.0082.0542-.0195.0923-.034.0761-.029.1809-.071.3049-.1261.2452-.109.5797-.2755.9214-.5033.6223-.4149 1.569-1.2376 1.5695-2.5174.001-.7669-.2694-1.5095-.7633-2.0962-.494-.5869-1.1798-.9799-1.9359-1.1096s-1.5337.0124-2.195.401c-.6614.3887-1.1638.9989-1.4184 1.7226-.1833.521.0905 1.0919.6115 1.2752.521.1832 1.0919-.0905 1.2752-.6115.0978-.2781.2909-.5126.545-.662z"/><path d="m18.65 20c-.5523 0-1 .4477-1 1s.4477 1 1 1h.01c.5523 0 1-.4477 1-1s-.4477-1-1-1z"/></g></svg>

<svg width="24" height="24" viewBox="0 0 24 24" fill="none" xmlns="http://www.w3.org/2000/svg">
<path fill-rule="evenodd" clip-rule="evenodd" d="M8.7587 1H15.2413C16.0463 0.999988 16.7106 0.999979 17.2518 1.0442C17.8139 1.09012 18.3306 1.18868 18.816 1.43598C19.5686 1.81947 20.1805 2.43139 20.564 3.18404C20.8113 3.66938 20.9099 4.18608 20.9558 4.74818C21 5.28937 21 5.95372 21 6.75868V9.76584C21 10.2001 21 10.4173 20.9294 10.5356C20.8587 10.6541 20.7865 10.7119 20.6553 10.7548C20.5244 10.7976 20.275 10.7413 19.7762 10.6287C19.6875 10.6087 19.5981 10.591 19.5082 10.5756C18.2866 10.366 17.0302 10.5956 15.9616 11.2236C14.8931 11.8516 14.0813 12.8375 13.67 14.0067C13.1201 15.5697 13.9415 17.2824 15.5044 17.8322C15.5438 17.8461 15.5833 17.8591 15.6228 17.8712C15.6075 18.2267 15.6556 18.591 15.7748 18.9487C15.8432 19.1537 15.9315 19.3464 16.0369 19.5253C15.7906 19.9608 15.65 20.464 15.65 21C15.65 21.3487 15.7095 21.6835 15.8189 21.9948C15.9023 22.2322 15.944 22.3509 15.9487 22.3679C16.0514 22.7426 15.8892 22.9714 15.5016 22.9988C15.4841 23 15.4031 23 15.2413 23H8.75868C7.95372 23 7.28937 23 6.74818 22.9558C6.18608 22.9099 5.66938 22.8113 5.18404 22.564C4.43139 22.1805 3.81947 21.5686 3.43598 20.816C3.18868 20.3306 3.09012 19.8139 3.0442 19.2518C2.99998 18.7106 2.99999 18.0463 3 17.2413V6.75869C2.99999 5.95373 2.99998 5.28936 3.0442 4.74818C3.09012 4.18608 3.18868 3.66938 3.43598 3.18404C3.81947 2.43139 4.43139 1.81947 5.18404 1.43598C5.66938 1.18868 6.18608 1.09012 6.74818 1.0442C7.28936 0.999979 7.95375 0.999988 8.7587 1ZM7 5C6.44772 5 6 5.44772 6 6C6 6.55229 6.44772 7 7 7H16C16.5523 7 17 6.55229 17 6C17 5.44772 16.5523 5 16 5H7ZM6 10C6 9.44771 6.44772 9 7 9H13C13.5523 9 14 9.44771 14 10C14 10.5523 13.5523 11 13 11H7C6.44772 11 6 10.5523 6 10ZM6 14C6 13.4477 6.44772 13 7 13H9C9.55229 13 10 13.4477 10 14C10 14.5523 9.55229 15 9 15H7C6.44772 15 6 14.5523 6 14Z" fill="#801ED7"/>
<path d="M17.9884 14.6721C18.2426 14.5227 18.5414 14.4681 18.832 14.518C19.1225 14.5678 19.3861 14.7189 19.5759 14.9444C19.7658 15.1699 19.8697 15.4554 19.8693 15.7502V15.7517C19.8693 15.9703 19.6921 16.2714 19.1904 16.6059C18.97 16.7528 18.7425 16.8673 18.5661 16.9457C18.4793 16.9842 18.4084 17.0125 18.3616 17.0304C18.3382 17.0393 18.3211 17.0455 18.3112 17.049L18.3031 17.0519C17.7802 17.2271 17.4978 17.7928 17.6723 18.3162C17.8469 18.8402 18.4132 19.1233 18.9372 18.9487L18.9384 18.9483L18.9812 18.9334C19.0043 18.9252 19.0354 18.9139 19.0735 18.8994C19.1496 18.8704 19.2544 18.8284 19.3784 18.7733C19.6236 18.6643 19.9581 18.4978 20.2998 18.27C20.9221 17.8551 21.8688 17.0324 21.8693 15.7526C21.8703 14.9857 21.5999 14.2431 21.106 13.6564C20.612 13.0695 19.9262 12.6765 19.1701 12.5468C18.414 12.4171 17.6364 12.5592 16.9751 12.9478C16.3137 13.3365 15.8113 13.9467 15.5567 14.6704C15.3734 15.1914 15.6472 15.7623 16.1682 15.9456C16.6892 16.1288 17.2601 15.8551 17.4434 15.3341C17.5412 15.056 17.7343 14.8215 17.9884 14.6721Z" fill="#801ED7"/>
<path d="M18.65 20C18.0977 20 17.65 20.4477 17.65 21C17.65 21.5523 18.0977 22 18.65 22H18.66C19.2123 22 19.66 21.5523 19.66 21C19.66 20.4477 19.2123 20 18.66 20H18.65Z" fill="#801ED7"/>
</svg>
